assets/img/braze_icons/target-01.svg

<svg fill="none" height="24" viewBox="0 0 24 24" width="24" xmlns="http://www.w3.org/2000/svg"><path clip-rule="evenodd" d="m1 12c0-6.07513 4.92487-11 11-11 6.0751 0 11 4.92487 11 11 0 6.0751-4.9249 11-11 11-6.07513 0-11-4.9249-11-11zm14 0c0-.5523.4477-1 1-1h4c.5523 0 1 .4477 1 1s-.4477 1-1 1h-4c-.5523 0-1-.4477-1-1zm-11-1c-.55228 0-1 .4477-1 1s.44772 1 1 1h4c.55228 0 1-.4477 1-1s-.44772-1-1-1zm8-8c.5523 0 1 .44772 1 1v4c0 .55228-.4477 1-1 1s-1-.44772-1-1v-4c0-.55228.4477-1 1-1zm1 13c0-.5523-.4477-1-1-1s-1 .4477-1 1v4c0 .5523.4477 1 1 1s1-.4477 1-1z" fill="#801ed7" fill-rule="evenodd"/></svg>

<svg width="24" height="24" viewBox="0 0 24 24" fill="none" xmlns="http://www.w3.org/2000/svg">
<path fill-rule="evenodd" clip-rule="evenodd" d="M1 12C1 5.92487 5.92487 1 12 1C18.0751 1 23 5.92487 23 12C23 18.0751 18.0751 23 12 23C5.92487 23 1 18.0751 1 12ZM15 12C15 11.4477 15.4477 11 16 11H20C20.5523 11 21 11.4477 21 12C21 12.5523 20.5523 13 20 13H16C15.4477 13 15 12.5523 15 12ZM4 11C3.44772 11 3 11.4477 3 12C3 12.5523 3.44772 13 4 13H8C8.55228 13 9 12.5523 9 12C9 11.4477 8.55228 11 8 11H4ZM12 3C12.5523 3 13 3.44772 13 4V8C13 8.55228 12.5523 9 12 9C11.4477 9 11 8.55228 11 8V4C11 3.44772 11.4477 3 12 3ZM13 16C13 15.4477 12.5523 15 12 15C11.4477 15 11 15.4477 11 16V20C11 20.5523 11.4477 21 12 21C12.5523 21 13 20.5523 13 20V16Z" fill="#801ED7"/>
</svg>
